Rent_app/images/tip-lightbulb-copy-3.svg

<?xml version="1.0" encoding="UTF-8"?>
<svg width="54px" height="54px" viewBox="0 0 54 54" version="1.1" xmlns="http://www.w3.org/2000/svg" xmlns:xlink="http://www.w3.org/1999/xlink">
    <!-- Generator: sketchtool 42 (36781) - http://www.bohemiancoding.com/sketch -->
    <title>163C67DF-296E-427D-B97F-3B7A438BBF6D</title>
    <desc>Created with sketchtool.</desc>
    <defs></defs>
    <g id="onboarding-v.2" stroke="none" stroke-width="1" fill="none" fill-rule="evenodd">
        <g id="Initial-Onboarding-2-(m)" transform="translate(-157.000000, -171.000000)" fill="#F8D11C">
            <g id="tooltip-copy-4" transform="translate(25.000000, 113.000000)">
                <g id="tip-(lightbulb)-copy-3" transform="translate(132.000000, 58.000000)">
                    <path d="M24.5454545,33.1363636 C24.5454545,31.9451105 24.5742021,31.9924831 21.9812726,28.2475834 C20.401936,25.9665891 19.6673863,24.3872815 19.6362601,22.6932722 C19.5654593,18.8400226 22.7139353,15.9545455 26.6925919,15.9545455 C31.1665131,15.9545455 33.7768518,18.7466952 33.7500141,22.7003802 C33.7471354,23.1244697 33.6864987,23.5691274 33.5702701,24.0380374 C33.2810483,25.2048668 32.7228737,26.3630677 31.6871547,28.122509 C29.6497935,31.5835033 29.4545455,31.9683272 29.4545455,33.1363636 L30.6818182,33.1363636 C30.6818182,32.3116629 30.9098726,31.8621794 32.7447851,28.7450975 C33.8371557,26.8894184 34.4358178,25.6472067 34.7614942,24.3333059 C34.9000443,23.7743426 34.973691,23.2342806 34.9772586,22.7087107 C35.0086099,18.0900752 31.8647767,14.7272727 26.6925919,14.7272727 C22.05474,14.7272727 18.3252138,18.1452639 18.4091945,22.7158187 C18.4460198,24.7199955 19.2644854,26.4797252 20.9722572,28.9462151 C23.2596907,32.249895 23.3181818,32.3462816 23.3181818,33.1363636 L24.5454545,33.1363636 Z" id="Path-12" fill-rule="nonzero"></path>
                    <path d="M30.0681818,33.75 L30.0681818,36.5640053 L27.9730962,38.6590909 L26.0269038,38.6590909 L23.9318182,36.5640053 L23.9318182,33.75 L30.0681818,33.75 Z M31.2954545,32.5227273 L22.7045455,32.5227273 L22.7045455,37.0723583 L25.5185508,39.8863636 L28.4814492,39.8863636 L31.2954545,37.0723583 L31.2954545,32.5227273 Z M23.3181818,37.4318182 L30.6818182,37.4318182 L30.6818182,36.2045455 L23.3181818,36.2045455 L23.3181818,37.4318182 Z" id="Path-13" fill-rule="nonzero"></path>
                    <circle id="Oval-7" cx="38.0454545" cy="30.6818182" r="1.22727273"></circle>
                    <ellipse id="Oval-7-Copy" cx="40.5" cy="23.3181818" rx="1.22727273" ry="1.22727273"></ellipse>
                    <ellipse id="Oval-7-Copy-2" cx="38.0454545" cy="17.1818182" rx="1.22727273" ry="1.22727273"></ellipse>
                    <ellipse id="Oval-7" transform="translate(15.954545, 30.681818) scale(-1, 1) translate(-15.954545, -30.681818) " cx="15.9545455" cy="30.6818182" rx="1.22727273" ry="1.22727273"></ellipse>
                    <ellipse id="Oval-7-Copy" transform="translate(13.500000, 23.318182) scale(-1, 1) translate(-13.500000, -23.318182) " cx="13.5" cy="23.3181818" rx="1.22727273" ry="1.22727273"></ellipse>
                    <ellipse id="Oval-7-Copy-2" transform="translate(15.954545, 17.181818) scale(-1, 1) translate(-15.954545, -17.181818) " cx="15.9545455" cy="17.1818182" rx="1.22727273" ry="1.22727273"></ellipse>
                    <path d="M27,53.6931818 C41.7422372,53.6931818 53.6931818,41.7422372 53.6931818,27 C53.6931818,12.2577628 41.7422372,0.306818182 27,0.306818182 C12.2577628,0.306818182 0.306818182,12.2577628 0.306818182,27 C0.306818182,41.7422372 12.2577628,53.6931818 27,53.6931818 Z M27,51.8522727 C13.2744688,51.8522727 2.14772727,40.7255312 2.14772727,27 C2.14772727,13.2744688 13.2744688,2.14772727 27,2.14772727 C40.7255312,2.14772727 51.8522727,13.2744688 51.8522727,27 C51.8522727,40.7255312 40.7255312,51.8522727 27,51.8522727 Z" id="Oval-8" fill-rule="nonzero"></path>
                </g>
            </g>
        </g>
    </g>
</svg>

<svg width="54" height="54" viewBox="0 0 54 54" xmlns="http://www.w3.org/2000/svg"><title>1450F80A-6243-4B37-9627-888F3B94530A</title><g fill="#F8D11C" fill-rule="evenodd"><path d="M24.545 33.136c0-1.19.03-1.144-2.564-4.888-1.58-2.281-2.314-3.86-2.345-5.555-.07-3.853 3.078-6.738 7.057-6.738 4.474 0 7.084 2.792 7.057 6.745a5.722 5.722 0 0 1-.18 1.338c-.289 1.167-.847 2.325-1.883 4.085-2.037 3.46-2.232 3.845-2.232 5.013h1.227c0-.824.228-1.274 2.063-4.39 1.092-1.857 1.69-3.099 2.016-4.413a6.939 6.939 0 0 0 .216-1.624c.032-4.619-3.112-7.982-8.284-7.982-4.638 0-8.368 3.418-8.284 7.989.037 2.004.855 3.764 2.563 6.23 2.288 3.304 2.346 3.4 2.346 4.19h1.227z" fill-rule="nonzero"/><path d="M30.068 33.75v2.814l-2.095 2.095h-1.946l-2.095-2.095V33.75h6.136zm1.227-1.227h-8.59v4.55l2.814 2.813h2.962l2.814-2.814v-4.55zm-7.977 4.909h7.364v-1.227h-7.364v1.227z" fill-rule="nonzero"/><circle cx="38.045" cy="30.682" r="1.227"/><ellipse cx="40.5" cy="23.318" rx="1.227" ry="1.227"/><ellipse cx="38.045" cy="17.182" rx="1.227" ry="1.227"/><ellipse transform="matrix(-1 0 0 1 31.91 0)" cx="15.955" cy="30.682" rx="1.227" ry="1.227"/><ellipse transform="matrix(-1 0 0 1 27 0)" cx="13.5" cy="23.318" rx="1.227" ry="1.227"/><ellipse transform="matrix(-1 0 0 1 31.91 0)" cx="15.955" cy="17.182" rx="1.227" ry="1.227"/><path d="M27 53.693c14.742 0 26.693-11.95 26.693-26.693C53.693 12.258 41.743.307 27 .307 12.258.307.307 12.257.307 27c0 14.742 11.95 26.693 26.693 26.693zm0-1.84C13.274 51.852 2.148 40.725 2.148 27S13.274 2.148 27 2.148 51.852 13.274 51.852 27 40.726 51.852 27 51.852z" fill-rule="nonzero"/></g></svg>
